X:595
T:Reel 595
M:4/4
K:Gmin
L:1/8
d>c (3BAG B>G (3GFG |A>F (3FFF  (3ABc AFAF|G>B (3BcB GBdG|cAFc A2G2:| (3efg g>f  (3fff g>b| (3abc'  (3fga b>g (3gfg |a>f (3fff a>g (3gfg |a>f (3fff b>g (3gfe |f>g (3fga g>f (3def |c>F (3FFF A>cc2|
